X:1
T:Title
%%score { ( 1 3 ) | 2 }
L:1/8
M:4/4
K:Eb
V:1 treble nm="Grand Piano"
V:3 treble 
V:2 bass 
V:1
 z4 z2[Q:1/4=100] B2 | B3 A G2 F2 | E2 [CE]2 [B,E]2 [DF]2 | G3 F B2 A2 |[M:3/4] G6 |[M:1/4] E2 | %6
[M:4/4] e3 d [Ec]2 [Ee]2 | B3 c B2 G2 | [EB]2 [CEA]2 [B,DG]2 [A,B,F]2 |[M:3/4] [G,B,E]6 | %10
[M:1/4] [EB]2 |[M:4/4] [EB]3 [CEA] [B,DG]2 [A,DF]2 | E6 z2 | e3 d [Ec]2 [Ee]2 |[M:3/4] B6 | %15
[M:1/4] G2 |[M:4/4] A3 F B2 G2 |[M:9/8] c2 B- B e2- e c2 | %18
[M:4/4] B2 A2 [EG]2 F2[Q:1/4=98][Q:1/4=97][Q:1/4=95][Q:1/4=94][Q:1/4=92][Q:1/4=91][Q:1/4=89][Q:1/4=88][Q:1/4=86][Q:1/4=84][Q:1/4=83][Q:1/4=81][Q:1/4=80][Q:1/4=78][Q:1/4=77] | %19
[M:3/4] E6 |] %20
V:2
 z4 z2 [E,G,E]2 | [E,G,E]3 [E,CE] [E,B,E]2 [E,A,B,]2 | [E,G,B,]2 [A,,A,]2 [E,G,]2 [B,,B,]2 | %3
 [E,B,E]3 [A,B,D] [G,B,E]2 [F,B,D]2 |[M:3/4] [E,B,E]6 |[M:1/4] [G,B,]2 | %6
[M:4/4] [A,CE]3 [A,B,E] [A,,A,]2 [C,A,]2 | [E,G,E]3 [E,A,E] [E,G,E]2 [E,B,E]2 | %8
 [B,,G,]2 B,,2 B,,2 B,,2 |[M:3/4] E,6 |[M:1/4] [E,G,]2 |[M:4/4] [B,,G,]3 B,, B,,2 B,,2 | %12
 [E,G,B,]2 [A,,A,]2 [E,G,]2 [G,B,]2 | [A,CE]3 [A,B,E] [A,,A,]2 [C,A,]2 | %14
[M:3/4] [E,G,E]2 [F,A,]2 [G,B,]2 |[M:1/4] [E,B,E]2 |[M:4/4] [F,B,D]3 [A,B,D] [G,B,E]2 [E,B,E]2 | %17
[M:9/8] [A,E]2 [F,A,D]- [F,A,D] [G,B,E]2- [G,B,E] [A,E]2 | %18
[M:4/4] [G,B,E]2 [F,CE]2 [B,,B,]2 [B,,A,B,]2 |[M:3/4] [E,G,B,]6 |] %20
V:3
 x8 | x8 | x8 | x8 |[M:3/4] x6 |[M:1/4] x2 |[M:4/4] x8 | x8 | x8 |[M:3/4] x6 |[M:1/4] x2 | %11
[M:4/4] x8 | z2 C2 B,2 E2 | x8 |[M:3/4] z2 D2 E2 |[M:1/4] x2 |[M:4/4] x8 |[M:9/8] x9 |[M:4/4] x8 | %19
[M:3/4] x6 |] %20

